public/static/img/badges/Experienced.svg

<svg fill="none" height="33" viewBox="0 0 37 33" width="37" xmlns="http://www.w3.org/2000/svg" xmlns:xlink="http://www.w3.org/1999/xlink"><filter id="a" color-interpolation-filters="sRGB" filterUnits="userSpaceOnUse" height="33" width="36.607" x="0" y="0"><feFlood flood-opacity="0" result="BackgroundImageFix"/><feBlend in="SourceGraphic" in2="BackgroundImageFix" mode="normal" result="shape"/><feGaussianBlur result="effect1_foregroundBlur" stdDeviation="1"/></filter><filter id="b" color-interpolation-filters="sRGB" filterUnits="userSpaceOnUse" height="12.2534" width="12.2534" x="12.1768" y="10.3013"><feFlood flood-opacity="0" result="BackgroundImageFix"/><feBlend in="SourceGraphic" in2="BackgroundImageFix" mode="normal" result="shape"/><feGaussianBlur result="effect1_foregroundBlur" stdDeviation="1.76485"/></filter><g opacity=".75"><path d="m14.5 11h3.5 3l2.5 5.5-2.5 5h-6.5l-2.5-5z" fill="#ffe03f"/><g filter="url(#a)"><path clip-rule="evenodd" d="m8.9141 21.9162c-.68877-.1918-1.34382-.4057-1.9578-.6413-3.19618-1.2265-4.95633-2.9197-4.95633-4.7674 0-1.1875.73893-2.3354 2.13707-3.3193.23484-.1653.55946-.1094.72513.125.1656.2343.10954.5582-.1253.7235-.77382.5445-1.69625 1.4154-1.69625 2.4708 0 1.6335 2.28845 3.3375 6.1503 4.4164.43415-1.449 1.01718-2.9637 1.73048-4.495-.6826-1.4811-1.24277-2.9452-1.6634-4.3477-1.0174.2798-1.95156.6088-2.77797.9824-.26169.1185-.57007.0027-.6887-.2585-.11864-.2612-.00264-.5688.25912-.6872.87262-.3945 1.85783-.7412 2.92894-1.0355-.17782-.6911-.31976-1.36398-.42223-2.01231-.53343-3.37504.05606-5.74256 1.65984-6.66646.4688-.27003 1.0017-.40356 1.5871-.40363 1.4173-.00007 3.1447.78214 5.029 2.30266.5039.40654 1.0093.85807 1.5126 1.34858 2.3496-2.28536 4.6736-3.63629 6.5171-3.63629.5905 0 1.1263.13623 1.5925.40481 1.6037.9239 2.1932 3.29142 1.6598 6.66646-.1025.6484-.2445 1.32138-.4223 2.01248.6888.1919 1.3438.4057 1.9578.6413 3.1962 1.2266 4.9563 2.9197 4.9563 4.7675 0 1.8477-1.7601 3.5409-4.9564 4.7675-.5954.2284-1.229.4365-1.8948.6238.2712 1.0499.4573 2.0531.5493 2.9857.0281.2854-.1809.5395-.4669.5675-.2871.0281-.5406-.1804-.5687-.4658-.0869-.8814-.2631-1.831-.5197-2.8261-1.4652.3503-3.0617.6056-4.7378.7579-.9528 1.3465-1.9451 2.5649-2.9423 3.6235.4959.4857.9934.9315 1.4889 1.3313 2.2711 1.8324 4.2545 2.4911 5.4415 1.8071.9161-.5276 1.2106-1.7601 1.2965-2.7011.0261-.2855.2782-.4963.5653-.4699.2862.026.4971.2785.471.564-.1551 1.7-.7819 2.9125-1.8125 3.5062-1.6037.9239-3.9535.2495-6.6161-1.899-.5201-.4196-1.0418-.8871-1.5611-1.396-2.3774 2.3339-4.734 3.7159-6.599 3.7159-.5905 0-1.1262-.1362-1.5925-.4048-1.60374-.9239-2.19323-3.2914-1.65979-6.6665.10254-.6484.24448-1.3213.42229-2.0125zm1.7578 7.7798c.3059.1763.6667.2657 1.0721.2657 1.4008 0 3.2898-1.0275 5.3192-2.8932.184-.1692.3683-.345.5525-.5262-1.0066-1.067-1.9966-2.2851-2.9398-3.6171-1.6812-.1492-3.2833-.402-4.75452-.75-.16921.6583-.30414 1.2987-.40162 1.9153-.45504 2.8784-.03503 4.9216 1.15214 5.6055zm7.6699-3.8981c-.7852-.835-1.561-1.7664-2.3119-2.776.7471.0407 1.5063.0617 2.2737.0617.793 0 1.5775-.0222 2.3487-.0656-.7498 1.0079-1.5267 1.9431-2.3105 2.7799zm2.396-15.7957c-.7763-1.04698-1.5796-2.01062-2.3925-2.87035-.8115.8587-1.6161 1.82406-2.3917 2.86682.7728-.04403 1.5576-.06708 2.3498-.06708.8225 0 1.6356.02395 2.4344.07061zm-2.4342.9677c1.118 0 2.1908.0432 3.2131.1235.5742.836 1.1297 1.7153 1.6586 2.6294.5205.8995.9994 1.8071 1.4331 2.7103-.4503.9457-.9509 1.8975-1.4983 2.8434-.53.916-1.0926 1.8042-1.6773 2.6517-.9972.0761-2.0417.1172-3.1292.1172-1.0596 0-2.0782-.039-3.0522-.1114-.5851-.8491-1.1509-1.7433-1.6892-2.6735-.5446-.9412-1.043-1.8883-1.4916-2.8293.4315-.8959.9082-1.7968 1.4264-2.6923.529-.9142 1.0906-1.8008 1.674-2.647 1.021-.0801 2.0695-.122 3.1326-.122zm8.1041.8625c-1.0839-.2548-2.2722-.4623-3.5524-.6099.4196.6398.8276 1.3011 1.2208 1.9807.3851.6655.748 1.3359 1.0878 2.0065.4975-1.1511.9147-2.2844 1.2438-3.3773zm-3.6341 9.9696c.4239-.645.8379-1.3146 1.2381-2.0063.4116-.7113.7978-1.4267 1.157-2.1409.5233 1.1988.9614 2.3796 1.3035 3.5129-1.1241.2672-2.3617.4834-3.6986.6343zm4.7045-.8955c3.8243-1.0798 6.0883-2.7743 6.0883-4.399 0-1.6336-2.2884-3.3376-6.1502-4.4165-.4195 1.4002-.9782 2.8618-1.659 4.3405.708 1.5248 1.2884 3.035 1.7209 4.475zm-2.6152-17.85312c.4054 0 .7662.08936 1.0722.26567 1.1871.68391 1.6071 2.72705 1.1521 5.6055-.0975.61656-.2324 1.25695-.4016 1.91525-1.4235-.3367-2.9694-.5843-4.5909-.735-.9679-1.37109-1.9854-2.62235-3.0199-3.71362.1563-.15236.3128-.30098.4689-.44462 2.0294-1.8658 3.9184-2.89318 5.3192-2.89318zm-14.1256.24937c-1.18715.68391-1.60716 2.72706-1.15212 5.6055.09761.61753.23283 1.25905.40245 1.91845 1.42687-.3331 2.98017-.5786 4.60587-.7275.9783-1.38276 1.9982-2.63048 3.0222-3.70882-.4785-.466-.9587-.89469-1.4369-1.28053-2.271-1.8323-4.2542-2.49094-5.4415-1.8071zm-.4699 8.52345c1.1144-.2584 2.311-.4617 3.5617-.6053-.4222.6425-.8344 1.3095-1.233 1.9985-.3828.6614-.7433 1.3263-1.0808 1.9906-.4992-1.1533-.9178-2.2887-1.2479-3.3838zm2.3935 7.9531c-.4092-.7073-.7933-1.4184-1.1507-2.1285-.5272 1.2039-.9675 2.3897-1.3112 3.5314 1.13.2657 2.3733.48 3.716.6286-.4313-.6555-.8504-1.3339-1.2541-2.0315z" fill="#415588" fill-opacity=".5" fill-rule="evenodd"/></g><g filter="url(#b)"><path clip-rule="evenodd" d="m20.9004 16.4279c0 1.432-1.165 2.597-2.597 2.597-1.4321 0-2.597-1.165-2.597-2.597s1.1649-2.597 2.597-2.597c1.432 0 2.597 1.165 2.597 2.597zm-1.0391.0002c0-.8591-.699-1.5582-1.5582-1.5582-.8591 0-1.5582.6991-1.5582 1.5582 0 .8592.6991 1.5582 1.5582 1.5582.8592 0 1.5582-.699 1.5582-1.5582z" fill="#50e38c" fill-rule="evenodd"/></g></g><g clip-rule="evenodd" fill-rule="evenodd"><path d="m9.56132 20.9233c-.60953-.1702-1.18922-.3599-1.73257-.5688-2.82848-1.0879-4.38613-2.5896-4.38613-4.2285 0-1.0532.65392-2.0712 1.89122-2.944.20782-.1465.49509-.097.6417.1109.14655.2078.09694.4951-.11088.6417-.6848.483-1.50111 1.2554-1.50111 2.1914 0 1.4489 2.02518 2.9602 5.44274 3.9171.38421-1.2851.90021-2.6286 1.53141-3.9867-.6041-1.3136-1.0998-2.6122-1.47204-3.8561-.90036.2481-1.72705.5399-2.45839.8713-.23158.105-.50448.0023-.60947-.2293-.10498-.2317-.00233-.5045.22931-.6095.77223-.35 1.6441-.6574 2.59198-.9185-.15735-.6129-.28297-1.2097-.37365-1.78473-.47206-2.99345.04961-5.09328 1.46886-5.91272.4149-.23951.8864-.35794 1.4045-.358 1.2543-.00006 2.7829.6937 4.4505 2.04231.4459.36057.8931.76106 1.3386 1.1961 2.0792-2.02696 4.1359-3.22515 5.7673-3.22515.5225 0 .9967.12083 1.4093.35904 1.4192.81944 1.9409 2.91928 1.4689 5.91272-.0908.57513-.2164 1.17193-.3738 1.78493.6096.1702 1.1893.3599 1.7326.5688 2.8285 1.0879 4.3861 2.5896 4.3861 4.2284 0 1.6389-1.5576 3.1406-4.3862 4.2285-.5268.2026-1.0876.3872-1.6768.5533.24.9312.4047 1.8209.4861 2.6482.0249.253-.1601.4784-.4131.5033-.2542.0248-.4785-.1601-.5034-.4131-.0769-.7819-.2328-1.624-.4599-2.5066-1.2966.3106-2.7094.5371-4.1927.6721-.8432 1.1943-1.7213 2.275-2.6038 3.2139.4388.4307.8791.8262 1.3176 1.1808 2.0098 1.6252 3.765 2.2094 4.8155 1.6028.8107-.468 1.0713-1.5611 1.1473-2.3957.0231-.2533.2462-.4403.5003-.4168.2533.023.4399.247.4168.5002-.1372 1.5078-.6919 2.5832-1.604 3.1098-1.4192.8194-3.4987.2213-5.8549-1.6843-.4603-.3722-.922-.7868-1.3816-1.2382-2.1039 2.07-4.1893 3.2958-5.8397 3.2958-.5226 0-.9967-.1208-1.4093-.3591-1.41928-.8194-1.94096-2.9192-1.46889-5.9127.09074-.5751.21635-1.172.37371-1.7849zm1.55538 6.9004c.2708.1564.59.2356.9488.2356 1.2397 0 2.9113-.9113 4.7073-2.566.1628-.1501.3259-.306.4889-.4668-.8908-.9463-1.7669-2.0267-2.6016-3.2081-1.4878-.1323-2.9055-.3565-4.2075-.6652-.1498.5839-.2692 1.1519-.3555 1.6988-.40264 2.553-.031 4.3651 1.0196 4.9717zm6.7878-3.4577c-.6949-.7406-1.3814-1.5667-2.0459-2.4621.6611.036 1.333.0547 2.0121.0547.7018 0 1.396-.0197 2.0785-.0581-.6635.8939-1.351 1.7233-2.0447 2.4655zm2.1209-14.0098c-.687-.9286-1.3979-1.78328-2.1173-2.54581-.7181.76161-1.4301 1.61782-2.1165 2.54271.6839-.0391 1.3784-.0595 2.0795-.0595.7278 0 1.4474.0212 2.1543.0626zm-2.1552.8584c.9894 0 1.9388.0383 2.8435.1095.5082.7415.9998 1.5214 1.4678 2.3321.4606.7978.8844 1.6028 1.2682 2.4039-.3984.8387-.8415 1.683-1.3259 2.5219-.469.8124-.967 1.6002-1.4843 2.3519-.8825.0675-1.8068.1039-2.7693.1039-.9377 0-1.8391-.0346-2.701-.0987-.5178-.7532-1.0185-1.5463-1.4949-2.3713-.4819-.8348-.923-1.6748-1.32-2.5094.3818-.7946.8037-1.5936 1.2623-2.3879.4681-.8109.9651-1.5972 1.4815-2.3477.9035-.0711 1.8314-.1082 2.7721-.1082zm7.1728.7653c-.9592-.226-2.0108-.41-3.1438-.5409.3713.5674.7324 1.1539 1.0804 1.7567.3408.5902.6619 1.1848.9626 1.7796.4403-1.021.8095-2.0261 1.1008-2.9954zm-3.217 8.8419c.3752-.5721.7416-1.166 1.0957-1.7795.3643-.6309.706-1.2654 1.0239-1.8988.4631 1.0632.8508 2.1105 1.1535 3.1157-.9948.2369-2.09.4287-3.2731.5626zm4.1636-.794c3.3843-.9577 5.3878-2.4606 5.3878-3.9016 0-1.4489-2.0251-2.9602-5.4426-3.9172-.3713 1.2419-.8656 2.5383-1.4681 3.8498.6265 1.3524 1.1401 2.6919 1.5229 3.969zm-2.314-15.83429c.3588 0 .678.07927.9488.23564 1.0506.60658 1.4222 2.41872 1.0196 4.97172-.0863.54684-.2057 1.11483-.3555 1.69873-1.2597-.2987-2.6277-.5182-4.0627-.6519-.8565-1.2161-1.757-2.32588-2.6725-3.29377.1384-.13513.2768-.26695.415-.39434 1.796-1.65485 3.4676-2.56608 4.7073-2.56608zm-12.501.22116c-1.0506.60658-1.42224 2.41872-1.0196 4.97171.0864.54771.2061 1.11662.3562 1.70152 1.2627-.2954 2.6374-.5131 4.076-.6452.8657-1.22644 1.7683-2.33309 2.6745-3.2895-.4235-.41331-.8484-.79354-1.2716-1.13575-2.0098-1.62513-3.7648-2.2093-4.8155-1.60278zm-.4159 7.55953c.9862-.2292 2.0451-.4095 3.1519-.5369-.3735.5699-.7384 1.1614-1.0911 1.7725-.3387.5867-.6578 1.1764-.9565 1.7655-.4417-1.0228-.8121-2.0299-1.1043-3.0011zm2.1188 7.0541c-.3622-.6273-.7021-1.258-1.0184-1.8879-.4665 1.0679-.8562 2.1196-1.1604 3.1321 1 .2357 2.1003.4258 3.2886.5576-.3818-.5814-.7526-1.1831-1.1098-1.8018z" fill="#002fa8"/><path d="m20.1729 16.1264c0 1.2695-1.0328 2.3023-2.3024 2.3023-1.2695 0-2.3023-1.0328-2.3023-2.3023s1.0328-2.3023 2.3023-2.3023c1.2696 0 2.3024 1.0328 2.3024 2.3023zm-.9205 0c0-.7616-.6197-1.3814-1.3813-1.3814-.7617 0-1.3814.6198-1.3814 1.3814 0 .7617.6197 1.3814 1.3814 1.3814.7616 0 1.3813-.6197 1.3813-1.3814z" fill="#e35050"/></g></svg>

<svg width="37" height="33" viewBox="0 0 37 33" fill="none" xmlns="http://www.w3.org/2000/svg">
<g opacity="0.75">
<path d="M14.5 11H18H21L23.5 16.5L21 21.5H14.5L12 16.5L14.5 11Z" fill="#FFE03F"/>
<g filter="url(#filter0_f)">
<path fill-rule="evenodd" clip-rule="evenodd" d="M8.9141 21.9162C8.22533 21.7244 7.57028 21.5105 6.9563 21.2749C3.76012 20.0484 1.99997 18.3552 1.99997 16.5075C1.99997 15.32 2.7389 14.1721 4.13704 13.1882C4.37188 13.0229 4.6965 13.0788 4.86217 13.3132C5.02777 13.5475 4.97171 13.8714 4.73687 14.0367C3.96305 14.5812 3.04062 15.4521 3.04062 16.5075C3.04062 18.141 5.32907 19.845 9.19092 20.9239C9.62507 19.4749 10.2081 17.9602 10.9214 16.4289C10.2388 14.9478 9.67863 13.4837 9.258 12.0812C8.2406 12.361 7.30644 12.69 6.48003 13.0636C6.21834 13.1821 5.90996 13.0663 5.79133 12.8051C5.67269 12.5439 5.78869 12.2363 6.05045 12.1179C6.92307 11.7234 7.90828 11.3767 8.97939 11.0824C8.80157 10.3913 8.65963 9.71842 8.55716 9.07009C8.02373 5.69505 8.61322 3.32753 10.217 2.40363C10.6858 2.1336 11.2187 2.00007 11.8041 2C13.2214 1.99993 14.9488 2.78214 16.8331 4.30266C17.337 4.7092 17.8424 5.16073 18.3457 5.65124C20.6953 3.36588 23.0193 2.01495 24.8628 2.01495C25.4533 2.01495 25.9891 2.15118 26.4553 2.41976C28.059 3.34366 28.6485 5.71118 28.1151 9.08622C28.0126 9.73462 27.8706 10.4076 27.6928 11.0987C28.3816 11.2906 29.0366 11.5044 29.6506 11.74C32.8468 12.9666 34.6069 14.6597 34.6069 16.5075C34.6069 18.3552 32.8468 20.0484 29.6505 21.275C29.0551 21.5034 28.4215 21.7115 27.7557 21.8988C28.0269 22.9487 28.213 23.9519 28.305 24.8845C28.3331 25.1699 28.1241 25.424 27.8381 25.452C27.551 25.4801 27.2975 25.2716 27.2694 24.9862C27.1825 24.1048 27.0063 23.1552 26.7497 22.1601C25.2845 22.5104 23.688 22.7657 22.0119 22.918C21.0591 24.2645 20.0668 25.4829 19.0696 26.5415C19.5655 27.0272 20.063 27.473 20.5585 27.8728C22.8296 29.7052 24.813 30.3639 26 29.6799C26.9161 29.1523 27.2106 27.9198 27.2965 26.9788C27.3226 26.6933 27.5747 26.4825 27.8618 26.5089C28.148 26.5349 28.3589 26.7874 28.3328 27.0729C28.1777 28.7729 27.5509 29.9854 26.5203 30.5791C24.9166 31.503 22.5668 30.8286 19.9042 28.6801C19.3841 28.2605 18.8624 27.793 18.3431 27.2841C15.9657 29.618 13.6091 31 11.7441 31C11.1536 31 10.6179 30.8638 10.1516 30.5952C8.54786 29.6713 7.95837 27.3038 8.49181 23.9287C8.59435 23.2803 8.73629 22.6074 8.9141 21.9162ZM10.6719 29.696C10.9778 29.8723 11.3386 29.9617 11.744 29.9617C13.1448 29.9617 15.0338 28.9342 17.0632 27.0685C17.2472 26.8993 17.4315 26.7235 17.6157 26.5423C16.6091 25.4753 15.6191 24.2572 14.6759 22.9252C12.9947 22.776 11.3926 22.5232 9.92138 22.1752C9.75217 22.8335 9.61724 23.4739 9.51976 24.0905C9.06472 26.9689 9.48473 29.0121 10.6719 29.696ZM18.3418 25.7979C17.5566 24.9629 16.7808 24.0315 16.0299 23.0219C16.777 23.0626 17.5362 23.0836 18.3036 23.0836C19.0966 23.0836 19.8811 23.0614 20.6523 23.018C19.9025 24.0259 19.1256 24.9611 18.3418 25.7979ZM20.7378 10.0022C19.9615 8.95522 19.1582 7.99158 18.3453 7.13185C17.5338 7.99055 16.7292 8.95591 15.9536 9.99867C16.7264 9.95464 17.5112 9.93159 18.3034 9.93159C19.1259 9.93159 19.939 9.95554 20.7378 10.0022ZM18.3036 10.9699C19.4216 10.9699 20.4944 11.0131 21.5167 11.0934C22.0909 11.9294 22.6464 12.8087 23.1753 13.7228C23.6958 14.6223 24.1747 15.5299 24.6084 16.4331C24.1581 17.3788 23.6575 18.3306 23.1101 19.2765C22.5801 20.1925 22.0175 21.0807 21.4328 21.9282C20.4356 22.0043 19.3911 22.0454 18.3036 22.0454C17.244 22.0454 16.2254 22.0064 15.2514 21.934C14.6663 21.0849 14.1005 20.1907 13.5622 19.2605C13.0176 18.3193 12.5192 17.3722 12.0706 16.4312C12.5021 15.5353 12.9788 14.6344 13.497 13.7389C14.026 12.8247 14.5876 11.9381 15.171 11.0919C16.192 11.0118 17.2405 10.9699 18.3036 10.9699ZM26.4077 11.8324C25.3238 11.5776 24.1355 11.3701 22.8553 11.2225C23.2749 11.8623 23.6829 12.5236 24.0761 13.2032C24.4612 13.8687 24.8241 14.5391 25.1639 15.2097C25.6614 14.0586 26.0786 12.9253 26.4077 11.8324ZM22.7736 21.802C23.1975 21.157 23.6115 20.4874 24.0117 19.7957C24.4233 19.0844 24.8095 18.369 25.1687 17.6548C25.692 18.8536 26.1301 20.0344 26.4722 21.1677C25.3481 21.4349 24.1105 21.6511 22.7736 21.802ZM27.4781 20.9065C31.3024 19.8267 33.5664 18.1322 33.5664 16.5075C33.5664 14.8739 31.278 13.1699 27.4162 12.091C26.9967 13.4912 26.438 14.9528 25.7572 16.4315C26.4652 17.9563 27.0456 19.4665 27.4781 20.9065ZM24.8629 3.05338C25.2683 3.05338 25.6291 3.14274 25.9351 3.31905C27.1222 4.00296 27.5422 6.0461 27.0872 8.92455C26.9897 9.54111 26.8548 10.1815 26.6856 10.8398C25.2621 10.5031 23.7162 10.2555 22.0947 10.1048C21.1268 8.73371 20.1093 7.48245 19.0748 6.39118C19.2311 6.23882 19.3876 6.0902 19.5437 5.94656C21.5731 4.08076 23.4621 3.05338 24.8629 3.05338ZM10.7373 3.30275C9.55015 3.98666 9.13014 6.02981 9.58518 8.90825C9.68279 9.52578 9.81801 10.1673 9.98763 10.8267C11.4145 10.4936 12.9678 10.2481 14.5935 10.0992C15.5718 8.71644 16.5917 7.46872 17.6157 6.39038C17.1372 5.92438 16.657 5.49569 16.1788 5.10985C13.9078 3.27755 11.9246 2.61891 10.7373 3.30275ZM10.2674 11.8262C11.3818 11.5678 12.5784 11.3645 13.8291 11.2209C13.4069 11.8634 12.9947 12.5304 12.5961 13.2194C12.2133 13.8808 11.8528 14.5457 11.5153 15.21C11.0161 14.0567 10.5975 12.9213 10.2674 11.8262ZM12.6609 19.7793C12.2517 19.072 11.8676 18.3609 11.5102 17.6508C10.983 18.8547 10.5427 20.0405 10.199 21.1822C11.329 21.4479 12.5723 21.6622 13.915 21.8108C13.4837 21.1553 13.0646 20.4769 12.6609 19.7793Z" fill="#415588" fill-opacity="0.5"/>
</g>
<g filter="url(#filter1_f)">
<path fill-rule="evenodd" clip-rule="evenodd" d="M20.9004 16.4279C20.9004 17.8599 19.7354 19.0249 18.3034 19.0249C16.8713 19.0249 15.7064 17.8599 15.7064 16.4279C15.7064 14.9959 16.8713 13.8309 18.3034 13.8309C19.7354 13.8309 20.9004 14.9959 20.9004 16.4279ZM19.8613 16.4281C19.8613 15.569 19.1623 14.8699 18.3031 14.8699C17.444 14.8699 16.7449 15.569 16.7449 16.4281C16.7449 17.2873 17.444 17.9863 18.3031 17.9863C19.1623 17.9863 19.8613 17.2873 19.8613 16.4281Z" fill="#50E38C"/>
</g>
</g>
<path fill-rule="evenodd" clip-rule="evenodd" d="M9.56132 20.9233C8.95179 20.7531 8.3721 20.5634 7.82875 20.3545C5.00027 19.2666 3.44262 17.7649 3.44262 16.126C3.44262 15.0728 4.09654 14.0548 5.33384 13.182C5.54166 13.0355 5.82893 13.085 5.97554 13.2929C6.12209 13.5007 6.07248 13.788 5.86466 13.9346C5.17986 14.4176 4.36355 15.19 4.36355 16.126C4.36355 17.5749 6.38873 19.0862 9.80629 20.0431C10.1905 18.758 10.7065 17.4145 11.3377 16.0564C10.7336 14.7428 10.2379 13.4442 9.86566 12.2003C8.9653 12.4484 8.13861 12.7402 7.40727 13.0716C7.17569 13.1766 6.90279 13.0739 6.7978 12.8423C6.69282 12.6106 6.79547 12.3378 7.02711 12.2328C7.79934 11.8828 8.67121 11.5754 9.61909 11.3143C9.46174 10.7014 9.33612 10.1046 9.24544 9.52957C8.77338 6.53612 9.29505 4.43629 10.7143 3.61685C11.1292 3.37734 11.6007 3.25891 12.1188 3.25885C13.3731 3.25879 14.9017 3.95255 16.5693 5.30116C17.0152 5.66173 17.4624 6.06222 17.9079 6.49726C19.9871 4.4703 22.0438 3.27211 23.6752 3.27211C24.1977 3.27211 24.6719 3.39294 25.0845 3.63115C26.5037 4.45059 27.0254 6.55043 26.5534 9.54387C26.4626 10.119 26.337 10.7158 26.1796 11.3288C26.7892 11.499 27.3689 11.6887 27.9122 11.8976C30.7407 12.9855 32.2983 14.4872 32.2983 16.126C32.2983 17.7649 30.7407 19.2666 27.9121 20.3545C27.3853 20.5571 26.8245 20.7417 26.2353 20.9078C26.4753 21.839 26.64 22.7287 26.7214 23.556C26.7463 23.809 26.5613 24.0344 26.3083 24.0593C26.0541 24.0841 25.8298 23.8992 25.8049 23.6462C25.728 22.8643 25.5721 22.0222 25.345 21.1396C24.0484 21.4502 22.6356 21.6767 21.1523 21.8117C20.3091 23.006 19.431 24.0867 18.5485 25.0256C18.9873 25.4563 19.4276 25.8518 19.8661 26.2064C21.8759 27.8316 23.6311 28.4158 24.6816 27.8092C25.4923 27.3412 25.7529 26.2481 25.8289 25.4135C25.852 25.1602 26.0751 24.9732 26.3292 24.9967C26.5825 25.0197 26.7691 25.2437 26.746 25.4969C26.6088 27.0047 26.0541 28.0801 25.142 28.6067C23.7228 29.4261 21.6433 28.828 19.2871 26.9224C18.8268 26.5502 18.3651 26.1356 17.9055 25.6842C15.8016 27.7542 13.7162 28.98 12.0658 28.98C11.5432 28.98 11.0691 28.8592 10.6565 28.6209C9.23722 27.8015 8.71554 25.7017 9.18761 22.7082C9.27835 22.1331 9.40396 21.5362 9.56132 20.9233ZM11.1167 27.8237C11.3875 27.9801 11.7067 28.0593 12.0655 28.0593C13.3052 28.0593 14.9768 27.148 16.7728 25.4933C16.9356 25.3432 17.0987 25.1873 17.2617 25.0265C16.3709 24.0802 15.4948 22.9998 14.6601 21.8184C13.1723 21.6861 11.7546 21.4619 10.4526 21.1532C10.3028 21.7371 10.1834 22.3051 10.0971 22.852C9.69446 25.405 10.0661 27.2171 11.1167 27.8237ZM17.9045 24.366C17.2096 23.6254 16.5231 22.7993 15.8586 21.9039C16.5197 21.9399 17.1916 21.9586 17.8707 21.9586C18.5725 21.9586 19.2667 21.9389 19.9492 21.9005C19.2857 22.7944 18.5982 23.6238 17.9045 24.366ZM20.0254 10.3562C19.3384 9.4276 18.6275 8.57292 17.9081 7.81039C17.19 8.572 16.478 9.42821 15.7916 10.3531C16.4755 10.314 17.17 10.2936 17.8711 10.2936C18.5989 10.2936 19.3185 10.3148 20.0254 10.3562ZM17.8702 11.2146C18.8596 11.2146 19.809 11.2529 20.7137 11.3241C21.2219 12.0656 21.7135 12.8455 22.1815 13.6562C22.6421 14.454 23.0659 15.259 23.4497 16.0601C23.0513 16.8988 22.6082 17.7431 22.1238 18.582C21.6548 19.3944 21.1568 20.1822 20.6395 20.9339C19.757 21.0014 18.8327 21.0378 17.8702 21.0378C16.9325 21.0378 16.0311 21.0032 15.1692 20.9391C14.6514 20.1859 14.1507 19.3928 13.6743 18.5678C13.1924 17.733 12.7513 16.893 12.3543 16.0584C12.7361 15.2638 13.158 14.4648 13.6166 13.6705C14.0847 12.8596 14.5817 12.0733 15.0981 11.3228C16.0016 11.2517 16.9295 11.2146 17.8702 11.2146ZM25.043 11.9799C24.0838 11.7539 23.0322 11.5699 21.8992 11.439C22.2705 12.0064 22.6316 12.5929 22.9796 13.1957C23.3204 13.7859 23.6415 14.3805 23.9422 14.9753C24.3825 13.9543 24.7517 12.9492 25.043 11.9799ZM21.826 20.8218C22.2012 20.2497 22.5676 19.6558 22.9217 19.0423C23.286 18.4114 23.6277 17.7769 23.9456 17.1435C24.4087 18.2067 24.7964 19.254 25.0991 20.2592C24.1043 20.4961 23.0091 20.6879 21.826 20.8218ZM25.9896 20.0278C29.3739 19.0701 31.3774 17.5672 31.3774 16.1262C31.3774 14.6773 29.3523 13.166 25.9348 12.209C25.5635 13.4509 25.0692 14.7473 24.4667 16.0588C25.0932 17.4112 25.6068 18.7507 25.9896 20.0278ZM23.6756 4.19351C24.0344 4.19351 24.3536 4.27278 24.6244 4.42915C25.675 5.03573 26.0466 6.84787 25.644 9.40087C25.5577 9.94771 25.4383 10.5157 25.2885 11.0996C24.0288 10.8009 22.6608 10.5814 21.2258 10.4477C20.3693 9.2316 19.4688 8.12182 18.5533 7.15393C18.6917 7.0188 18.8301 6.88698 18.9683 6.75959C20.7643 5.10474 22.4359 4.19351 23.6756 4.19351ZM11.1746 4.41467C10.124 5.02125 9.75236 6.83339 10.155 9.38638C10.2414 9.93409 10.3611 10.503 10.5112 11.0879C11.7739 10.7925 13.1486 10.5748 14.5872 10.4427C15.4529 9.21626 16.3555 8.10961 17.2617 7.1532C16.8382 6.73989 16.4133 6.35966 15.9901 6.01745C13.9803 4.39232 12.2253 3.80815 11.1746 4.41467ZM10.7587 11.9742C11.7449 11.745 12.8038 11.5647 13.9106 11.4373C13.5371 12.0072 13.1722 12.5987 12.8195 13.2098C12.4808 13.7965 12.1617 14.3862 11.863 14.9753C11.4213 13.9525 11.0509 12.9454 10.7587 11.9742ZM12.8775 19.0283C12.5153 18.401 12.1754 17.7703 11.8591 17.1404C11.3926 18.2083 11.0029 19.26 10.6987 20.2725C11.6987 20.5082 12.799 20.6983 13.9873 20.8301C13.6055 20.2487 13.2347 19.647 12.8775 19.0283Z" fill="#002FA8"/>
<path fill-rule="evenodd" clip-rule="evenodd" d="M20.1729 16.1264C20.1729 17.3959 19.1401 18.4287 17.8705 18.4287C16.601 18.4287 15.5682 17.3959 15.5682 16.1264C15.5682 14.8569 16.601 13.8241 17.8705 13.8241C19.1401 13.8241 20.1729 14.8569 20.1729 16.1264ZM19.2524 16.1264C19.2524 15.3648 18.6327 14.745 17.8711 14.745C17.1094 14.745 16.4897 15.3648 16.4897 16.1264C16.4897 16.8881 17.1094 17.5078 17.8711 17.5078C18.6327 17.5078 19.2524 16.8881 19.2524 16.1264Z" fill="#E35050"/>
<defs>
<filter id="filter0_f" x="0" y="0" width="36.607" height="33" filterUnits="userSpaceOnUse" color-interpolation-filters="sRGB">
<feFlood flood-opacity="0" result="BackgroundImageFix"/>
<feBlend mode="normal" in="SourceGraphic" in2="BackgroundImageFix" result="shape"/>
<feGaussianBlur stdDeviation="1" result="effect1_foregroundBlur"/>
</filter>
<filter id="filter1_f" x="12.1768" y="10.3013" width="12.2534" height="12.2534" filterUnits="userSpaceOnUse" color-interpolation-filters="sRGB">
<feFlood flood-opacity="0" result="BackgroundImageFix"/>
<feBlend mode="normal" in="SourceGraphic" in2="BackgroundImageFix" result="shape"/>
<feGaussianBlur stdDeviation="1.76485" result="effect1_foregroundBlur"/>
</filter>
</defs>
</svg>
